X:10801
T:The Merry Backsmith
R:Reel
B:Tuneworks Tunebook (https://www.tuneworks.co.uk/)
G:tuneworks
Z:Jon Warbrick <jon.warbrick@googlemail.com>
M:4/4
L:1/8
K:D
|: AB | "D"d2 dA BAFA | ABdA BAFA | "G"ABde  f2ed | "A"Beed egfe | 
"D"d2 dA BAFA | ABdA BAFA | "G"ABde f2 ec | "A"dBAF "D"D2 :|
|: fg | "D"a2 ag f2fe | d2 dA BAFA | "G"ABde f2ed | "A"Beed egfe | 
"D"abag fgfe | d2 dA BAFA | "G"ABde f2 ec | "A"dBAF "D"D2 :|


